svgs/realvnc.svg

<svg width="192" height="192" viewBox="0 0 192 192" fill="none" xmlns="http://www.w3.org/2000/svg">
<path d="M22 35L62.5799 157.09L103.116 35.1321" stroke="black" stroke-width="12" stroke-linecap="round" stroke-linejoin="round"/>
<path d="M121.421 86.9326V57.395C121.421 45.4309 131.589 35.7992 144.219 35.7992H146.385C159.014 35.7992 169.182 45.4309 169.182 57.395V87.9085" stroke="black" stroke-width="12" stroke-linecap="round" stroke-linejoin="round"/>
<path d="M170 110.021H141.554C130.401 110.021 121.421 120.041 121.421 132.487V134.622C121.421 147.068 130.401 157.088 141.554 157.088H170" stroke="black" stroke-width="12" stroke-linecap="round" stroke-linejoin="round"/>
</svg>

<svg width="192" height="192" viewBox="0 0 192 192" fill="none" xmlns="http://www.w3.org/2000/svg"><path d="m22 35 40.58 122.09 40.536-121.958M121.421 86.933V57.395c0-11.964 10.168-21.596 22.798-21.596h2.166c12.629 0 22.797 9.632 22.797 21.596v30.514M170 110.021h-28.446c-11.153 0-20.133 10.02-20.133 22.466v2.135c0 12.446 8.98 22.466 20.133 22.466H170" stroke="#000" stroke-width="12" stroke-linecap="round" stroke-linejoin="round"/></svg>
